X: 230
T: The Joys of Summer
B: O'Neill's 230
N: "Moderate"
N: "Collected by J.O'Neill"
Z: 1997 by John Chambers <jc@trillian.mit.edu>
M: C
L: 1/8
K:Bb
F2 \
| B3A G2AB | c3B A2F2 | G4 A4 | B4 z2F2 \
| B3A G2AB | c3B A2F2 | G4 A4 | B6 ||
|| d2 \
| e2d2 e2f2 | g2f2 e2zd | e2d2 c2B2 | d2c2 B2A2 \
| B3A G2(AB) | c3B A2F2 | G4 A4 | B6 ||


